X:255
T:Danse Ecossaise
C:Joseph Allard
M:4/4
L:1/16
Z:abc by Bruce Osborne - bosborne@kos.net
K:Am
^fg|a4e3a c3ae3^f|g4d3g B3gd3g|a4e3a c3ae3^f|g3ed3B B3AA3g|!
a4e3a c3ae3^f|g4d3g B3gd3g|a3^fg3e ^f3de3d|B3gd3B B3AA2:|!
|:cd|e3AA3B c3de3d|g4G3A B3AB3d|e3AA3B c3de3d|g4G3A B3AA3a|!
e3AA3B c3de3d|g4G3A B3AB3d|e3AA3B c3de3d|g4G3A B3AA2:|!
